src/icons/file-log.svg

<?xml version="1.0" encoding="UTF-8" standalone="no"?>
<svg
   version="1.2"
   viewBox="0 0 16 16"
   width="16"
   height="16"
   id="svg1"
   sodipodi:docname="file-log.svg"
   inkscape:version="1.4 (e7c3feb100, 2024-10-09)"
   xmlns:inkscape="http://www.inkscape.org/namespaces/inkscape"
   xmlns:sodipodi="http://sodipodi.sourceforge.net/DTD/sodipodi-0.dtd"
   xmlns="http://www.w3.org/2000/svg"
   xmlns:svg="http://www.w3.org/2000/svg">
  <defs
     id="defs1" />
  <sodipodi:namedview
     id="namedview1"
     pagecolor="#505050"
     bordercolor="#eeeeee"
     borderopacity="1"
     inkscape:showpageshadow="0"
     inkscape:pageopacity="0"
     inkscape:pagecheckerboard="0"
     inkscape:deskcolor="#505050"
     inkscape:zoom="37.75"
     inkscape:cx="7.986755"
     inkscape:cy="8"
     inkscape:window-width="1316"
     inkscape:window-height="755"
     inkscape:window-x="20"
     inkscape:window-y="20"
     inkscape:window-maximized="0"
     inkscape:current-layer="svg1" />
  <title
     id="title1">file-icon</title>
  <style
     id="style1">
		.s0 { fill: #f1667f } 
		.s1 { fill: #000000 } 
	</style>
  <g
     id="Layer 1">
    <path
       id="path1"
       class="s0"
       d="M 7 2 C 5.6 2 4.9003906 2.0007813 4.4003906 2.3007812 C 3.9003906 2.5007812 3.5007813 2.9003906 3.3007812 3.4003906 C 3.0007813 3.9003906 3 4.6 3 6 L 3 11 C 3 12.4 3.0007813 13.099609 3.3007812 13.599609 C 3.5007813 14.099609 3.9003906 14.499219 4.4003906 14.699219 C 4.9003906 14.999219 5.6 15 7 15 L 10 15 C 11.4 15 12.099609 14.999219 12.599609 14.699219 C 13.099609 14.499219 13.499219 14.099609 13.699219 13.599609 C 13.999219 13.099609 14 12.4 14 11 L 14 7.3007812 C 14 6.8007813 14.000391 6.6003906 13.900391 6.4003906 C 13.900391 6.2003906 13.832552 6.0007813 13.699219 5.8007812 C 13.599219 5.6007813 13.399609 5.3996094 13.099609 5.0996094 L 10.900391 2.9003906 C 10.600391 2.6003906 10.399219 2.4007813 10.199219 2.3007812 C 9.9992187 2.1674479 9.7996094 2.0996094 9.5996094 2.0996094 C 9.3996094 1.9996094 9.1992188 2 8.6992188 2 L 7 2 z M 8.5 4.5 C 8.9 4.5 9.1674479 4.6007812 9.3007812 4.8007812 C 9.5007813 5.0674479 9.5996094 5.4007812 9.5996094 5.8007812 L 9.5996094 7.3007812 C 9.5329427 7.8341146 9.4670573 8.3341146 9.4003906 8.8007812 C 9.4003906 9.2674479 9.3325521 9.6007813 9.1992188 9.8007812 C 8.9992187 10.000781 8.7666667 10.099609 8.5 10.099609 C 8.1666667 10.099609 7.9341146 10.000781 7.8007812 9.8007812 C 7.6674479 9.6007813 7.5666667 9.2674479 7.5 8.8007812 C 7.5 8.3341146 7.4670573 7.8670573 7.4003906 7.4003906 L 7.4003906 5.8007812 C 7.4003906 5.4007813 7.466276 5.0674479 7.5996094 4.8007812 C 7.7996094 4.6007813 8.1 4.5 8.5 4.5 z M 8.5 10.699219 C 8.8333333 10.699219 9.133724 10.8 9.4003906 11 C 9.6003906 11.266667 9.6992188 11.567057 9.6992188 11.900391 C 9.6992188 12.233724 9.6003906 12.534115 9.4003906 12.800781 C 9.133724 13.000781 8.8333333 13.099609 8.5 13.099609 C 8.1666667 13.099609 7.866276 13.000781 7.5996094 12.800781 C 7.3996094 12.534115 7.3007813 12.233724 7.3007812 11.900391 C 7.3007812 11.567057 7.3996094 11.266667 7.5996094 11 C 7.866276 10.8 8.1666667 10.699219 8.5 10.699219 z " />
  </g>
</svg>

<svg xmlns="http://www.w3.org/2000/svg" width="16" height="16" version="1.2"><path d="M7 2c-1.4 0-2.1 0-2.6.3-.5.2-.9.6-1.1 1.1C3 3.9 3 4.6 3 6v5c0 1.4 0 2.1.3 2.6.2.5.6.9 1.1 1.1.5.3 1.2.3 2.6.3h3c1.4 0 2.1 0 2.6-.3.5-.2.9-.6 1.1-1.1.3-.5.3-1.2.3-2.6V7.3c0-.5 0-.7-.1-.9q0-.3-.2-.6c-.1-.2-.3-.4-.6-.7l-2.2-2.2c-.3-.3-.5-.5-.7-.6q-.3-.2-.6-.2C9.4 2 9.2 2 8.7 2zm1.5 2.5q.6 0 .8.3.3.4.3 1v1.5a87 87 0 0 1-.2 1.5q0 .7-.2 1-.3.3-.7.3-.5 0-.7-.3t-.3-1q0-.7-.1-1.4V5.8q0-.6.2-1 .3-.3.9-.3m0 6.2q.5 0 .9.3.3.4.3.9 0 .501-.3.9-.4.3-.9.3t-.9-.3a1.46 1.46 0 0 1-.3-.9q0-.5.3-.9.4-.3.9-.3" style="fill:#f1667f"/></svg>
